svgs/light/square-info.svg

<svg xmlns="http://www.w3.org/2000/svg" viewBox="0 0 448 512"><!-- Font Awesome Pro 6.0.0-alpha2 by @fontawesome - https://fontawesome.com License - https://fontawesome.com/license (Commercial License) --><path d="M224 184C237.254 184 248 173.256 248 160C248 146.746 237.254 136 224 136S200 146.746 200 160C200 173.256 210.746 184 224 184ZM384 32H64C28.654 32 0 60.654 0 96V416C0 451.346 28.654 480 64 480H384C419.346 480 448 451.346 448 416V96C448 60.654 419.346 32 384 32ZM416 416C416 433.645 401.645 448 384 448H64C46.355 448 32 433.645 32 416V96C32 78.355 46.355 64 64 64H384C401.645 64 416 78.355 416 96V416ZM272 352H240V240C240 231.156 232.844 224 224 224H192C183.156 224 176 231.156 176 240S183.156 256 192 256H208V352H176C167.164 352 160 359.162 160 368C160 376.836 167.164 384 176 384H272C280.836 384 288 376.836 288 368C288 359.162 280.836 352 272 352Z"/></svg>

<svg xmlns="http://www.w3.org/2000/svg" viewBox="0 0 448 512"><!--! Font Awesome Pro 6.3.0 by @fontawesome - https://fontawesome.com License - https://fontawesome.com/license (Commercial License) Copyright 2023 Fonticons, Inc. --><path d="M224 184c13.25 0 24-10.74 24-24c0-13.25-10.75-24-24-24S200 146.7 200 160C200 173.3 210.7 184 224 184zM384 32H64C28.65 32 0 60.65 0 96v320c0 35.35 28.65 64 64 64h320c35.35 0 64-28.65 64-64V96C448 60.65 419.3 32 384 32zM416 416c0 17.64-14.36 32-32 32H64c-17.64 0-32-14.36-32-32V96c0-17.64 14.36-32 32-32h320c17.64 0 32 14.36 32 32V416zM272 352h-32V240C240 231.2 232.8 224 224 224H192C183.2 224 176 231.2 176 240S183.2 256 192 256h16v96h-32C167.2 352 160 359.2 160 368C160 376.8 167.2 384 176 384h96c8.836 0 16-7.164 16-16C288 359.2 280.8 352 272 352z"/></svg>
